X: 21036
T: Jump At The Sun
R: jig
M: 6/8
K: Dminor
|:DFA ^G2A|DFA ^G2A|d2A d2A|BAG F2E|
DFA ^G2A|DFA ^G2A|d2A BAG|1 FGE D2F:|2 FGE D2c||
|:dAA fed|eAA gfe|fed fed|e2A ^G2A|
dAA fed|eAA gfe|dAA BAG|1 FGE D2c:|2 FGE D2F||

